storage/app/icons/tabler/filled/square-f4.svg

<!--
version: "2.4"
unicode: "f772"
-->
<svg
  xmlns="http://www.w3.org/2000/svg"
  width="24"
  height="24"
  viewBox="0 0 24 24"
  fill="currentColor"
>
  <path d="M18.333 2c1.96 0 3.56 1.537 3.662 3.472l.005 .195v12.666c0 1.96 -1.537 3.56 -3.472 3.662l-.195 .005h-12.666a3.667 3.667 0 0 1 -3.662 -3.472l-.005 -.195v-12.666c0 -1.96 1.537 -3.56 3.472 -3.662l.195 -.005h12.666zm-2.333 6a1 1 0 0 0 -.993 .883l-.007 .117v2h-1v-2l-.007 -.117a1 1 0 0 0 -1.986 0l-.007 .117v2l.005 .15a2 2 0 0 0 1.838 1.844l.157 .006h1v2l.007 .117a1 1 0 0 0 1.986 0l.007 -.117v-6l-.007 -.117a1 1 0 0 0 -.993 -.883zm-6 0h-2l-.117 .007a1 1 0 0 0 -.876 .876l-.007 .117v6l.007 .117a1 1 0 0 0 .876 .876l.117 .007l.117 -.007a1 1 0 0 0 .876 -.876l.007 -.117v-2h1l.117 -.007a1 1 0 0 0 0 -1.986l-.117 -.007h-1v-1h1l.117 -.007a1 1 0 0 0 0 -1.986l-.117 -.007z" />
</svg>

<svg xmlns="http://www.w3.org/2000/svg" width="24" height="24" fill="currentColor" viewBox="0 0 24 24"><path d="M18.333 2c1.96 0 3.56 1.537 3.662 3.472l.005.195v12.666c0 1.96-1.537 3.56-3.472 3.662l-.195.005H5.667a3.667 3.667 0 0 1-3.662-3.472L2 18.333V5.667c0-1.96 1.537-3.56 3.472-3.662L5.667 2zM16 8a1 1 0 0 0-.993.883L15 9v2h-1V9l-.007-.117a1 1 0 0 0-1.986 0L12 9v2l.005.15a2 2 0 0 0 1.838 1.844L14 13h1v2l.007.117a1 1 0 0 0 1.986 0L17 15V9l-.007-.117A1 1 0 0 0 16 8m-6 0H8l-.117.007a1 1 0 0 0-.876.876L7 9v6l.007.117a1 1 0 0 0 .876.876L8 16l.117-.007a1 1 0 0 0 .876-.876L9 15v-2h1l.117-.007a1 1 0 0 0 0-1.986L10 11H9v-1h1l.117-.007a1 1 0 0 0 0-1.986z"/></svg>
